archdroid-icon-theme/Archdroid-Red/apps/scalable/libreoffice-math.svg

<?xml version="1.0" encoding="UTF-8" standalone="no"?>
<svg
   xmlns:dc="http://purl.org/dc/elements/1.1/"
   xmlns:cc="http://creativecommons.org/ns#"
   xmlns:rdf="http://www.w3.org/1999/02/22-rdf-syntax-ns#"
   xmlns:svg="http://www.w3.org/2000/svg"
   xmlns="http://www.w3.org/2000/svg"
   xmlns:sodipodi="http://sodipodi.sourceforge.net/DTD/sodipodi-0.dtd"
   xmlns:inkscape="http://www.inkscape.org/namespaces/inkscape"
   fill="#F44336"
   width="48"
   height="48"
   viewBox="0 0 48 48"
   id="svg2"
   version="1.1"
   inkscape:version="0.91 r13725"
   sodipodi:docname="libreoffice-math1.svg">
  <metadata
     id="metadata10">
    <rdf:RDF>
      <cc:Work
         rdf:about="">
        <dc:format>image/svg+xml</dc:format>
        <dc:type
           rdf:resource="http://purl.org/dc/dcmitype/StillImage" />
        <dc:title></dc:title>
      </cc:Work>
    </rdf:RDF>
  </metadata>
  <defs
     id="defs8" />
  <sodipodi:namedview
     pagecolor="#ffffff"
     bordercolor="#666666"
     borderopacity="1"
     objecttolerance="10"
     gridtolerance="10"
     guidetolerance="10"
     inkscape:pageopacity="0"
     inkscape:pageshadow="2"
     inkscape:window-width="1366"
     inkscape:window-height="713"
     id="namedview6"
     showgrid="false"
     inkscape:zoom="3.897603896495833"
     inkscape:cx="-17.60911125602549"
     inkscape:cy="24.01807700355405"
     inkscape:window-x="0"
     inkscape:window-y="30"
     inkscape:window-maximized="1"
     inkscape:current-layer="svg2"
     inkscape:snap-bbox="true"
     inkscape:bbox-paths="true"
     inkscape:bbox-nodes="true"
     inkscape:snap-bbox-edge-midpoints="false"
     inkscape:snap-bbox-midpoints="false"
     inkscape:snap-object-midpoints="true"
     inkscape:object-paths="true"
     inkscape:snap-intersection-paths="true"
     inkscape:object-nodes="true"
     inkscape:snap-smooth-nodes="true"
     inkscape:snap-midpoints="true" />
  <path
     style="fill:#00a50f;fill-opacity:1"
     d="M 12 4 C 9.789999999999999 4 8.019531249999998 5.790000000000001 8.01953125 8 L 8 40 C 8 42.21 9.770468750000001 44 11.98046875 44 L 36 44 C 38.21 44 40 42.21 40 40 L 40 16 L 28 4 L 12 4 z M 26 7 L 37 18 L 26 18 L 26 7 z M 22.111328125 23.78125 L 22.26953125 23.78125 L 24.07421875 23.78125 L 34.064453125 23.78125 L 34.064453125 25.28125 L 23.5078125 25.28125 L 18.712890625 38 L 17.2578125 38 L 14.8359375 31.8671875 L 13 31.8671875 L 13 30.34375 L 16.203125 30.34375 L 17.794921875 34.6796875 L 17.970703125 35.490234375 L 18.029296875 35.490234375 L 18.21484375 34.6796875 L 22.111328125 23.78125 z M 25.041015625 27.43359375 L 27.2578125 27.43359375 L 29.474609375 31.330078125 L 31.720703125 27.43359375 L 33.966796875 27.43359375 L 30.5390625 32.658203125 L 34.064453125 38 L 31.857421875 38 L 29.513671875 34.005859375 L 27.169921875 38 L 24.943359375 38 L 28.46875 32.658203125 L 25.041015625 27.43359375 z "
     id="path21823" />
</svg>

<svg xmlns="http://www.w3.org/2000/svg" fill="#F44336" viewBox="0 0 48 48"><path d="m12 4c-2.21 0-3.98 1.79-3.98 4l-.02 32c0 2.21 1.77 4 3.98 4h24.02c2.21 0 4-1.79 4-4v-24l-12-12h-16m14 3l11 11h-11v-11m-3.889 16.781h.158 1.805 9.99v1.5h-10.557l-4.795 12.719h-1.455l-2.422-6.133h-1.836v-1.523h3.203l1.592 4.336.176.811h.059l.186-.811 3.896-10.898m2.93 3.652h2.217l2.217 3.896 2.246-3.896h2.246l-3.428 5.225 3.525 5.342h-2.207l-2.344-3.994-2.344 3.994h-2.227l3.525-5.342-3.428-5.225" fill="#00a50f"/></svg>
